X: 63
T: JIG: Tenpenny Bit
C: C: Trad.; S: Denis Murphy & Julia Clifford
C: Set Leaders: Anton, Mars
Z: Anton Zille ed.; GaryAMartin at The Session
N: https://thesession.org/members/26966/sets/94456
R: Jig
M: 6/8
L: 1/8
Q: 3/8=116
K: Ador
|:edB G2A|Bed Bcd|edB G2A|BAB gfg|
edB G2A|Bed Bcd|eag edB|1 BAG A2g:|2 BAG ABd||
|:e2f gfg|eaa ged|e2f gfg|efg a3|
aba age|ged ^cde|eag edB|1 BAG ABd:|2 BAG A2g||

